rendering_styles/style-icons/map-icons-svg/c_mx_seamark_j132_weedkelp.svg

<?xml version="1.0" encoding="UTF-8"?>
<svg xmlns="http://www.w3.org/2000/svg" xmlns:xlink="http://www.w3.org/1999/xlink" width="12" height="12" viewBox="0 0 12 12" version="1.1">
<g id="surface1">
<path style="fill:none;stroke-width:1.27;stroke-linecap:butt;stroke-linejoin:round;stroke:rgb(50.196081%,0%,0%);stroke-opacity:1;stroke-miterlimit:4;" d="M 2.972867 8.703191 C 4.275363 10.411969 5.589807 12.120747 6.844505 12.993061 C 8.087253 13.865374 9.282203 13.913172 10.465203 13.949021 " transform="matrix(0.326897,0,0,0.326897,-0.0304138,3.186207)"/>
<path style="fill:none;stroke-width:1.27;stroke-linecap:butt;stroke-linejoin:round;stroke:rgb(50.196081%,0%,0%);stroke-opacity:1;stroke-miterlimit:4;" d="M 25.198935 8.452251 C 26.883814 6.767372 28.544795 5.094442 30.32527 4.712058 C 32.105745 4.329674 33.981817 5.237836 35.857888 6.145998 " transform="matrix(0.326897,0,0,0.326897,-0.0304138,3.186207)"/>
<path style="fill:none;stroke-width:1.27;stroke-linecap:butt;stroke-linejoin:round;stroke:rgb(50.196081%,0%,0%);stroke-opacity:1;stroke-miterlimit:4;" d="M 18.005337 12.001252 C 19.965054 10.435868 21.936722 8.870484 24.12348 8.500049 C 26.310238 8.117665 29.345411 9.623302 31.125886 9.754747 C 32.894412 9.874242 33.814524 9.563555 34.746584 9.252868 " transform="matrix(0.326897,0,0,0.326897,-0.0304138,3.186207)"/>
<path style="fill:none;stroke-width:1.27;stroke-linecap:butt;stroke-linejoin:round;stroke:rgb(50.196081%,0%,0%);stroke-opacity:1;stroke-miterlimit:4;" d="M 15.794679 6.169897 C 17.061326 4.9152 18.304074 3.648553 19.642418 3.361765 C 20.980762 3.074977 22.390803 3.756098 23.800844 4.43722 " transform="matrix(0.326897,0,0,0.326897,-0.0304138,3.186207)"/>
<path style="fill:none;stroke-width:1.27;stroke-linecap:butt;stroke-linejoin:round;stroke:rgb(50.196081%,0%,0%);stroke-opacity:1;stroke-miterlimit:4;" d="M 10.405455 8.822686 C 11.875244 7.651635 13.345032 6.480584 14.994063 6.205746 C 16.631144 5.918958 18.925448 7.04221 20.239893 7.125857 C 21.566287 7.233402 22.271308 6.994412 22.964379 6.755423 " transform="matrix(0.326897,0,0,0.326897,-0.0304138,3.186207)"/>
<path style="fill:none;stroke-width:1.27;stroke-linecap:butt;stroke-linejoin:round;stroke:rgb(50.196081%,0%,0%);stroke-opacity:1;stroke-miterlimit:4;" d="M 0.965351 9.324565 C 3.414999 8.535898 5.876595 7.735281 9.413647 8.452251 C 12.9268 9.157272 18.734256 12.77797 22.115964 13.566637 C 25.509622 14.355304 27.648582 13.781728 29.787542 13.196202 " transform="matrix(0.326897,0,0,0.326897,-0.0304138,3.186207)"/>
</g>
</svg>

<?xml version="1.0" encoding="UTF-8"?>
<svg width="32" height="32" fill="none" version="1.1" viewBox="0 0 580 580" xmlns="http://www.w3.org/2000/svg" xmlns:cc="http://creativecommons.org/ns#" xmlns:dc="http://purl.org/dc/elements/1.1/" xmlns:rdf="http://www.w3.org/1999/02/22-rdf-syntax-ns#">
 <title>WEDKLP19</title>
 <desc>weed kelp</desc>
 <metadata>
  <!-- Created for Openseamap, CC BY-SA 2.0, 2021-12-05, josail, weed kelp simplified SVG based on IHO NCWG2-08.9A J13.4, https://legacy.iho.int/mtg_docs/com_wg/NCWG/NCWG2/NCWG2-08.9A%20seagrass.pdf -->
  <rdf:RDF>
   <cc:Work rdf:about="">
    <dc:title>WEDKLP19</dc:title>
    <dc:format>image/svg+xml</dc:format>
    <dc:type rdf:resource="http://purl.org/dc/dcmitype/StillImage"/>
   </cc:Work>
  </rdf:RDF>
 </metadata>
 <g transform="matrix(15.8 0 0 15.8 -1.47 154)" fill="none" stroke="#800000" stroke-linejoin="round" stroke-width="1.27">
  <path d="m2.97 8.7c1.31 1.71 2.62 3.42 3.87 4.29 1.25 0.88 2.44 0.92 3.63 0.96"/>
  <path d="m25.2 8.45c1.68-1.68 3.35-3.36 5.13-3.74 1.77-0.38 3.65 0.53 5.53 1.44"/>
  <path d="m18 12c1.97-1.56 3.94-3.13 6.12-3.5 2.19-0.38 5.23 1.12 7 1.25 1.77 0.12 2.7-0.19 3.63-0.5"/>
  <path d="m15.8 6.17c1.26-1.26 2.51-2.52 3.84-2.81 1.34-0.29 2.75 0.4 4.16 1.08"/>
  <path d="m10.4 8.82c1.48-1.17 2.95-2.34 4.59-2.62s3.93 0.84 5.25 0.93c1.33 0.1 2.03-0.14 2.72-0.37"/>
  <path d="m0.97 9.32c2.45-0.79 4.91-1.58 8.44-0.87 3.52 0.71 9.32 4.33 12.7 5.12 3.4 0.79 5.54 0.21 7.68-0.37"/>
 </g>
</svg>
